img/footer-youtube-logo.svg

<svg width="25" height="25" viewBox="0 0 25 25" fill="none" xmlns="http://www.w3.org/2000/svg">
<g id="Social Media / Youtube">
<g id="Vector">
<path d="M19.1752 8.75648C19.0185 8.16739 18.5549 7.70266 17.9652 7.54339C16.8988 7.25757 12.6202 7.25757 12.6202 7.25757C12.6202 7.25757 8.34388 7.25757 7.27534 7.54339C6.68775 7.70048 6.2242 8.1652 6.06534 8.75648C5.78024 9.82557 5.78024 12.0576 5.78024 12.0576C5.78024 12.0576 5.78024 14.2896 6.06534 15.3587C6.22203 15.9478 6.68557 16.4125 7.27534 16.5717C8.34388 16.8576 12.6202 16.8576 12.6202 16.8576C12.6202 16.8576 16.8988 16.8576 17.9652 16.5717C18.5527 16.4147 19.0163 15.9499 19.1752 15.3587C19.4602 14.2896 19.4602 12.0576 19.4602 12.0576C19.4602 12.0576 19.4602 9.82557 19.1752 8.75648Z" fill="black"/>
<path d="M11.2536 14.115L14.8074 12.0576L11.2536 10.0001V14.115Z" fill="white"/>
</g>
</g>
</svg>

<svg width="25" height="25" fill="none" xmlns="http://www.w3.org/2000/svg"><path d="M19.175 8.756a1.718 1.718 0 0 0-1.21-1.213c-1.066-.285-5.345-.285-5.345-.285s-4.276 0-5.345.285a1.718 1.718 0 0 0-1.21 1.213c-.285 1.07-.285 3.302-.285 3.302s0 2.232.285 3.3c.157.59.62 1.055 1.21 1.214 1.069.286 5.345.286 5.345.286s4.279 0 5.345-.286a1.718 1.718 0 0 0 1.21-1.213c.285-1.07.285-3.301.285-3.301s0-2.232-.285-3.302Z" fill="#000"/><path d="m11.254 14.115 3.553-2.057L11.254 10v4.115Z" fill="#fff"/></svg>
